svg/fluentui-system-icons/ic_fluent_point_scan_24_regular.svg

<svg width="24" height="24" viewBox="0 0 24 24" fill="none" xmlns="http://www.w3.org/2000/svg">
<path d="M10.2502 2C10.6299 2 10.9437 2.28215 10.9934 2.64823L11.0002 2.75L11.0007 7.54409C13.8531 7.88541 16.1152 10.1478 16.456 13.0003L21.25 13.0001C21.6642 13.0001 22 13.3358 22 13.7501C22 14.1297 21.7178 14.4435 21.3518 14.4932L21.25 14.5001L16.4558 14.5009C16.1143 17.3526 13.8525 19.6142 11.0007 19.9554L11.0002 21.25C11.0002 21.6642 10.6645 22 10.2502 22C9.87055 22 9.55676 21.7178 9.5071 21.3518L9.50025 21.25L9.50012 19.9554C6.64815 19.6143 4.38624 17.3527 4.04467 14.5009L2.75 14.5001C2.33579 14.5001 2 14.1643 2 13.7501C2 13.3704 2.28215 13.0566 2.64823 13.0069L2.75 13.0001L4.04447 13.0003C4.38534 10.1477 6.64758 7.88524 9.50012 7.54405L9.50025 2.75C9.50025 2.33579 9.83604 2 10.2502 2ZM9.5 14.5L5.55905 14.5009C5.88029 16.5231 7.47773 18.1203 9.50015 18.4411L9.5 14.5ZM14.9415 14.5009L11 14.5L11.0008 18.441C13.023 18.12 14.6202 16.523 14.9415 14.5009ZM9.50015 9.05839C7.47723 9.37929 5.8795 10.9772 5.55881 13.0001L9.5 13L9.50015 9.05839ZM11.0008 9.05847L11 13L14.9417 13.0001C14.6325 11.0496 13.136 9.49422 11.2159 9.09772L11.0008 9.05847Z" fill="#212121"/>
</svg>

<svg xmlns="http://www.w3.org/2000/svg" width="24" height="24"><path d="M10.25 2a.75.75 0 0 1 .743.648L11 2.75v4.794A6.253 6.253 0 0 1 16.457 13h4.794a.75.75 0 0 1 .102 1.493l-.102.007h-4.794A6.253 6.253 0 0 1 11 19.956v1.295a.75.75 0 0 1-1.494.102L9.5 21.25v-1.295a6.253 6.253 0 0 1-5.455-5.454H2.75a.75.75 0 0 1-.102-1.494L2.75 13h1.294A6.253 6.253 0 0 1 9.5 7.544V2.75a.75.75 0 0 1 .75-.75ZM9.5 14.5H5.559A4.754 4.754 0 0 0 9.5 18.442V14.5Zm5.441 0H11v3.941a4.754 4.754 0 0 0 3.941-3.94Zm-5.44-5.442A4.754 4.754 0 0 0 5.558 13H9.5V9.058Zm1.5 0L11 13h3.942a4.755 4.755 0 0 0-3.726-3.902L11 9.058Z"/></svg>
